X: 105
T: Thomas and Sally
%%VWML:Thompsons1762-2277a-p53-0 
F:http://www.vwml.org/record/Thompsons1762/2277a/p53
Z: 2014 John Chambers <jc:trillian.mit.edu>
B: Thompson "Twenty four Country Dances for the Year 1762" p.53 #1
F: http://www.vwml.org/browse/browse-collections-dance-tune-books/browse-thompsons1762# 2014 -8-11
N: Above the octave notes in bars 10-11 is "Ger:Flute.", and "Vio:" is below.
M: C
L: 1/8
K: C
[|\
c2(eg) (fe)(Tdc) | (d/e/f) Ad {c}B2AG | c2Ge d2Gf | (e/f/g) fe {f}e2d2 |
c2(eg) (fe)(Tdc) | (d/e/f) Ad {c}B2AG | c2Ge d2Gf | (e/f/g) GB c2[c2C2] |]
[|\
G2EG cGec | dBAG ^F/G/A D[cC] | [B2B,2][dB,2]B [c2C2]ec | B/c/d D^F G2[G2G,2] | c2(eg) (fe)(Tdc) | (d/e/f) Ad {c}B2AG | c2Ge d2Gf | (e/f/g) GB [c2][c2C2] |]
|:\
(c'e)(c'e) (c'e)(fa) | (ge)(Tdc) (B/c/d) GF | E2gE F2af | (e/f/g) GB c2[c2C2] :| 
%-------------------------
%%begintext align
%% The 1st Man sets to the 2d Wo: & turn his Partner the 1st Wo:
%% do the same .|. cross over two Cu: lead to the top & cast off .|:
%% hands round 4 with 3d Cu: .|:. right & left at top :|:.
%%endtext
%-------------------------
T: the Old Maid
%R: reel
Z: 2014 John Chambers <jc:trillian.mit.edu>
B: Thompson "Twenty four Country Dances for the Year 1762" p.53 #2
F: http://www.vwml.org/browse/browse-collections-dance-tune-books/browse-thompsons1762# 2014 -8-11
M: C
L: 1/8
K: G
|:\
G2(BG) (Bd)(BG) | TF2(AF) (Ac)(AF) |\
TG2(BG) (dB)(gB) | cAFd BG[G2G,2] :|
|:\
Tg2({fg}bg) (af)(gd) | e>f Tf3/e//f// g/f/g/a/ gd |\
Tg2({fg}bg) (af)(gd) | e>f Tf3/e//f// g3 :|
|: B |\
(ce)(Ac) (Bd)(GB) | Aa Tf3/(e//f//) (gb)(Bd) |\
(ce)(Ac) (Bd)(GB) |A/B/c DF G2 z2 :|
%-------------------------
%%begintext align
%% The 1st Man cast off & hands round 3 with the 3d
%% Cu: .|. the 1st Wo: do the same :|. lead thro the bottom
%% & cast up lead thro the top & cast off :|: hands 4
%% at bottom .|:. right & left at top .|:.
%%endtext
%-------------------------
